; generated by SuperSlicer 2.3.55 on 2021-01-09 at 17:17:56 UTC

; 

; external perimeters extrusion width = 0.63mm
; perimeters extrusion width = 0.68mm
; infill extrusion width = 0.68mm
; solid infill extrusion width = 0.68mm
; top infill extrusion width = 0.63mm
; support material extrusion width = 0.54mm

; object:{"name":"Fusion360_Chiron_cover","id":"Fusion360_Chiron_cover.stl id:0 copy 0","object_center":[200.445706,293.152472,0.000000],"boundingbox_center":[200.445706,293.152472,12.500000],"boundingbox_size":[41.000000,41.000000,25.000000]}
; plater:{"center":[200.445706,293.152472,0.000000],"boundingbox_center":[200.445706,293.152472,12.500000],"boundingbox_size":[41.000000,41.000000,25.000000]}

;TYPE:Custom
; custom gcode: start_gcode
G90 ; use absolute coordinates
M83 ; extruder relative mode
M104 S190 ; set extruder temp
M140 S60 ; set bed temp
M190 S60 ; wait for bed temp
M109 S190 ; wait for extruder temp
G28 ; home all
G1 Z2 F240
G1 X2 Y10 F3000
G1 Z0.28 F240
G92 E0.0
G1 Y190 E15.0 F1500.0 ; intro line
G1 X2.3 F5000
G1 Y10 E30 F1200.0 ; intro line
G92 E0.0
; custom gcode end: start_gcode
G21 ; set units to millimeters
G90 ; use absolute coordinates
M83 ; use relative distances for extrusion
; custom gcode: start_filament_gcode
; Filament gcode
; custom gcode end: start_filament_gcode
;LAYER_CHANGE
;Z:0.2
;HEIGHT:0.2
; custom gcode: before_layer_gcode
;BEFORE_LAYER_CHANGE
;0.2

; custom gcode end: before_layer_gcode

G1 E-3.00000 F2400.00000
G1 Z0.000000 F7800.000
; custom gcode: layer_gcode
;AFTER_LAYER_CHANGE
;0.2
; custom gcode end: layer_gcode

; printing object Fusion360_Chiron_cover.stl id:0 copy 0
G1 X224.305 Y311.361
G1 E3.00000 F2400.00000
;TYPE:Support material
G1 F1800.000
G1 X224.305 Y299.144 E0.50499
G1 X223.311 Y299.144 E0.04109
G1 X223.311 Y311.138 E0.49574
G1 X222.317 Y311.138 E0.04109
G1 X222.317 Y298.920 E0.50499
G1 E-3.00000 F2400.00000
G1 X218.341 Y305.340 F7800.000
G1 E3.00000 F2400.00000
G1 F1800.000
G1 X218.341 Y299.144 E0.25612
G1 X217.346 Y299.144 E0.04109
G1 X217.346 Y304.575 E0.22450
G1 X216.352 Y304.360 E0.04204
G1 X216.352 Y299.144 E0.21560
G1 X215.358 Y299.144 E0.04109
G1 X215.358 Y304.379 E0.21640
G1 X214.364 Y304.639 E0.04247
G1 X214.364 Y299.144 E0.22715
G1 X213.370 Y299.144 E0.04109
G1 X213.370 Y305.195 E0.25011
G1 X212.887 Y305.612 E0.02637
G1 X212.376 Y306.236 E0.03336
G1 X212.376 Y299.144 E0.29315
G1 X211.381 Y299.144 E0.04109
G1 X211.381 Y311.089 E0.49372
G1 X212.376 Y311.089 E0.04109
G1 X212.376 Y310.645 E0.01833
G1 X210.387 Y311.313 F7800.000
G1 F1800.000
G1 X210.387 Y299.144 E0.50297
G1 X209.393 Y299.144 E0.04109
G1 X209.393 Y311.089 E0.49372
G1 X208.399 Y311.089 E0.04109
G1 X208.399 Y299.144 E0.49372
G1 X207.405 Y299.144 E0.04109
G1 X207.405 Y311.313 E0.50297
G1 E-3.00000 F2400.00000
G1 X193.487 Y287.385 F7800.000
G1 E3.00000 F2400.00000
G1 F1800.000
G1 X193.487 Y275.216 E0.50297
G1 X192.492 Y275.216 E0.04109
G1 X192.492 Y287.161 E0.49372
G1 X191.498 Y287.161 E0.04109
G1 X191.498 Y275.216 E0.49372
G1 X190.504 Y275.216 E0.04109
G1 X190.504 Y287.161 E0.49372
G1 X189.510 Y287.161 E0.04109
G1 X189.510 Y275.216 E0.49372
G1 X188.516 Y275.216 E0.04109
G1 X188.857 Y275.833 E0.02913
G1 X189.094 Y276.470 E0.02810
G1 X189.258 Y277.533 E0.04446
G1 X189.223 Y278.212 E0.02810
G1 X189.075 Y278.899 E0.02905
G1 X188.818 Y279.553 E0.02905
G1 X188.516 Y280.069 E0.02468
G1 X188.516 Y287.161 E0.29315
G1 X187.522 Y287.161 E0.04109
G1 X187.522 Y281.110 E0.25011
G1 X187.157 Y281.356 E0.01819
G1 X186.527 Y281.666 E0.02898
G1 X186.527 Y287.161 E0.22715
G1 X185.533 Y287.161 E0.04109
G1 X185.533 Y281.926 E0.21639
G1 X184.539 Y281.945 E0.04110
G1 X184.539 Y308.141 E1.08273
G1 X183.545 Y308.141 E0.04109
G1 X183.545 Y281.730 E1.09164
G1 X183.107 Y281.554 E0.01952
G1 X182.551 Y281.239 E0.02642
G1 X182.551 Y308.141 E1.11193
G1 X182.509 Y308.141 E0.00172
G1 X182.487 Y304.386 E0.15519
G1 X182.349 Y303.962 E0.01841
G1 X182.198 Y303.716 E0.01197
G1 X181.883 Y303.401 E0.01841
G1 X181.557 Y303.217 E0.01547
G1 X181.557 Y283.088 E0.83194
G1 X180.968 Y283.216 E0.02490
G1 X180.563 Y283.165 E0.01688
G1 X180.563 Y303.140 E0.82559
G1 X180.009 Y303.401 E0.02530
G1 X179.568 Y303.914 E0.02794
G1 X179.568 Y282.391 E0.88956
G1 X179.452 Y282.115 E0.01242
G1 X179.382 Y281.664 E0.01886
G1 X179.418 Y275.167 E0.26852
G1 X178.574 Y275.167 E0.03488
G1 X178.574 Y308.141 E1.36287
G1 X177.580 Y308.141 E0.04109
G1 X177.580 Y275.167 E1.36287
G1 X176.586 Y275.167 E0.04109
G1 X176.586 Y308.364 E1.37212
G1 E-3.00000 F2400.00000
G1 X218.362 Y309.820 F7800.000
G1 E3.00000 F2400.00000
;TYPE:Perimeter
G1 F1218.955
G1 X218.515 Y309.408 E0.02308
G1 X218.617 Y308.839 E0.03042
G1 X218.617 Y308.466 E0.01956
G1 X218.550 Y308.092 E0.01998
G1 X218.972 Y307.898 E0.02443
G1 X220.021 Y309.183 E0.08718
G1 X220.021 Y310.406 E0.06424
G1 X218.447 Y309.850 E0.08775
G1 X217.106 Y311.049 F7800.000
G1 F1206.367
G1 X217.699 Y312.728 E0.09360
G1 X216.475 Y312.728 E0.06432
G1 X215.218 Y311.702 E0.08528
G1 X215.369 Y311.299 E0.02261
G1 X216.184 Y311.323 E0.04285
G1 X216.804 Y311.192 E0.03333
G1 X217.025 Y311.087 E0.01283
G1 E-3.00000 F2400.00000
G1 X185.601 Y275.049 F7800.000
G1 E3.00000 F2400.00000
G1 F1283.012
G1 X185.156 Y274.983 E0.02366
G1 X184.550 Y275.001 E0.03188
G1 X183.770 Y275.214 E0.04247
G1 X183.192 Y273.577 E0.09123
G1 X184.588 Y273.577 E0.07332
G1 X185.791 Y274.643 E0.08449
G1 X185.639 Y274.968 E0.01883
G1 E-3.00000 F2400.00000
G1 X182.511 Y276.479 F7800.000
G1 E3.00000 F2400.00000
G1 F1284.225
G1 X182.336 Y277.050 E0.03141
G1 X182.265 Y277.652 E0.03188
G1 X182.345 Y278.323 E0.03552
G1 X181.942 Y278.504 E0.02319
G1 X180.878 Y277.304 E0.08429
G1 X180.881 Y275.903 E0.07364
G1 X182.426 Y276.449 E0.08613
G1 E-3.00000 F2400.00000
G1 X214.374 Y307.311 F7800.000
G1 E3.00000 F2400.00000
;TYPE:External perimeter
G1 F1800.000
G1 X214.112 Y307.701 E0.02295
G1 X214.006 Y307.942 E0.01286
G1 X213.893 Y308.408 E0.02341
G1 X213.893 Y308.897 E0.02387
G1 X214.006 Y309.363 E0.02341
G1 X214.108 Y309.596 E0.01241
G1 X214.237 Y309.814 E0.01240
G1 X214.550 Y310.178 E0.02341
G1 X214.940 Y310.457 E0.02341
G1 X215.178 Y310.571 E0.01286
G1 X215.640 Y310.697 E0.02341
G1 X216.129 Y310.712 E0.02387
G1 X216.608 Y310.611 E0.02387
G1 X217.041 Y310.405 E0.02341
G1 X217.255 Y310.251 E0.01286
G1 X217.589 Y309.907 E0.02341
G1 X217.833 Y309.494 E0.02341
G1 X217.924 Y309.247 E0.01286
G1 X218.008 Y308.784 E0.02295
G1 X218.008 Y308.521 E0.01286
G1 X217.924 Y308.058 E0.02295
G1 X217.833 Y307.811 E0.01286
G1 X217.589 Y307.398 E0.02341
G1 X217.255 Y307.054 E0.02341
G1 X217.041 Y306.900 E0.01286
G1 X216.608 Y306.694 E0.02341
G1 X216.129 Y306.593 E0.02387
G1 X215.650 Y306.608 E0.02341
G1 X215.392 Y306.662 E0.01286
G1 X214.948 Y306.842 E0.02341
G1 X214.558 Y307.122 E0.02341
G1 X214.437 Y307.246 E0.00847
G1 X213.908 Y307.251 F7800.000
G1 E-3.00000 F2400.00000
G1 X218.064 Y311.355 F7800.000
G1 E3.00000 F2400.00000
G1 F900.000
G1 X217.909 Y311.492 E0.01009
G1 X218.077 Y311.967 E0.02464
G1 X219.261 Y311.967 E0.05779
G1 X219.261 Y310.784 E0.05778
G1 X218.775 Y310.612 E0.02514
G1 X218.378 Y311.078 E0.02988
G1 X218.131 Y311.295 E0.01604
G1 X217.868 Y311.289 F7800.000
G1 E-3.00000 F2400.00000
G1 X186.429 Y279.092 F7800.000
G1 E3.00000 F2400.00000
G1 F1800.000
G1 X186.726 Y278.704 E0.02387
G1 X186.919 Y278.265 E0.02341
G1 X186.979 Y278.018 E0.01241
G1 X187.009 Y277.766 E0.01240
G1 X186.980 Y277.287 E0.02341
G1 X186.838 Y276.819 E0.02387
G1 X186.589 Y276.398 E0.02387
G1 X186.255 Y276.054 E0.02341
G1 X186.041 Y275.900 E0.01286
G1 X185.616 Y275.698 E0.02295
G1 X185.371 Y275.631 E0.01240
G1 X185.120 Y275.594 E0.01240
G1 X184.640 Y275.608 E0.02341
G1 X184.178 Y275.734 E0.02341
G1 X183.940 Y275.848 E0.01286
G1 X183.550 Y276.127 E0.02341
G1 X183.231 Y276.498 E0.02387
G1 X183.012 Y276.924 E0.02341
G1 X182.935 Y277.176 E0.01286
G1 X182.878 Y277.652 E0.02341
G1 X182.936 Y278.138 E0.02387
G1 X183.107 Y278.596 E0.02387
G1 X183.374 Y278.994 E0.02341
G1 X183.558 Y279.183 E0.01286
G1 X183.940 Y279.457 E0.02295
G1 X184.178 Y279.571 E0.01286
G1 X184.631 Y279.695 E0.02295
G1 X184.894 Y279.718 E0.01286
G1 X185.362 Y279.676 E0.02295
G1 X185.616 Y279.607 E0.01286
G1 X186.049 Y279.401 E0.02341
G1 X186.359 Y279.149 E0.01948
G1 X186.907 Y279.193 F7800.000
G1 E-3.00000 F2400.00000
G1 X182.253 Y275.523 F7800.000
G1 E3.00000 F2400.00000
G1 F900.000
G1 X182.518 Y275.223 E0.01958
G1 X182.982 Y274.813 E0.03021
G1 X182.814 Y274.337 E0.02464
G1 X181.631 Y274.337 E0.05778
G1 X181.631 Y275.521 E0.05779
G1 X182.107 Y275.689 E0.02463
G1 X182.193 Y275.591 E0.00641
G1 X182.646 Y275.603 F7800.000
G1 E-3.00000 F2400.00000
G1 X181.631 Y279.072 F7800.000
G1 E3.00000 F2400.00000
G1 F1800.000
G1 X181.631 Y281.630 E0.12486
G1 X181.593 Y281.863 E0.01151
G1 X181.497 Y282.053 E0.01041
G1 X181.346 Y282.203 E0.01040
G1 X181.156 Y282.300 E0.01040
G1 X180.946 Y282.334 E0.01040
G1 X180.735 Y282.300 E0.01040
G1 X180.534 Y282.198 E0.01102
G1 X180.400 Y282.064 E0.00923
G1 X180.298 Y281.863 E0.01102
G1 X180.261 Y281.628 E0.01161
G1 X180.272 Y275.418 E0.30314
G1 X180.354 Y274.957 E0.02287
G1 X180.514 Y274.517 E0.02285
G1 X180.748 Y274.112 E0.02286
G1 X181.046 Y273.756 E0.02264
G1 X181.405 Y273.455 E0.02285
G1 X181.814 Y273.219 E0.02307
G1 X182.257 Y273.058 E0.02298
G1 X182.472 Y273.010 E0.01077
G1 X182.959 Y272.967 E0.02389
G1 X217.932 Y272.967 E1.70724
G1 X218.413 Y273.010 E0.02353
G1 X218.865 Y273.131 E0.02285
G1 X219.289 Y273.329 E0.02285
G1 X219.672 Y273.598 E0.02286
G1 X220.005 Y273.931 E0.02298
G1 X220.140 Y274.106 E0.01077
G1 X220.377 Y274.517 E0.02319
G1 X220.538 Y274.957 E0.02285
G1 X220.619 Y275.418 E0.02285
G1 X220.631 Y310.639 E1.71936
G1 X220.589 Y311.119 E0.02352
G1 X220.467 Y311.571 E0.02285
G1 X220.266 Y312.002 E0.02319
G1 X220.148 Y312.188 E0.01077
G1 X219.845 Y312.549 E0.02298
G1 X219.487 Y312.850 E0.02285
G1 X219.077 Y313.086 E0.02307
G1 X218.635 Y313.247 E0.02298
G1 X218.419 Y313.295 E0.01077
G1 X217.932 Y313.337 E0.02389
G1 X182.959 Y313.337 E1.70724
G1 X182.479 Y313.295 E0.02353
G1 X182.027 Y313.174 E0.02285
G1 X181.596 Y312.973 E0.02319
G1 X181.410 Y312.854 E0.01077
G1 X181.050 Y312.552 E0.02298
G1 X180.748 Y312.193 E0.02286
G1 X180.514 Y311.788 E0.02285
G1 X180.354 Y311.348 E0.02285
G1 X180.272 Y310.887 E0.02287
G1 X180.261 Y304.675 E0.30325
G1 X180.300 Y304.430 E0.01211
G1 X180.331 Y304.353 E0.00403
G1 X180.472 Y304.161 E0.01163
G1 X180.534 Y304.107 E0.00402
G1 X180.735 Y304.005 E0.01102
G1 X180.946 Y303.971 E0.01040
G1 X181.156 Y304.005 E0.01040
G1 X181.346 Y304.101 E0.01040
G1 X181.497 Y304.252 E0.01040
G1 X181.599 Y304.453 E0.01102
G1 X181.619 Y304.534 E0.00405
G1 X181.643 Y310.859 E0.30879
G1 X181.771 Y311.251 E0.02011
G1 X182.006 Y311.575 E0.01953
G1 X182.182 Y311.725 E0.01130
G1 X182.538 Y311.907 E0.01953
G1 X182.921 Y311.967 E0.01892
G1 X214.580 Y311.967 E1.54545
G1 X213.672 Y311.226 E0.05722
G1 X213.279 Y310.816 E0.02772
G1 X212.967 Y310.362 E0.02691
G1 X212.726 Y309.847 E0.02773
G1 X212.576 Y309.317 E0.02691
G1 X212.513 Y308.752 E0.02773
G1 X212.516 Y308.474 E0.01358
G1 X212.541 Y308.202 E0.01335
G1 X212.662 Y307.647 E0.02773
G1 X212.865 Y307.135 E0.02691
G1 X213.157 Y306.648 E0.02773
G1 X213.518 Y306.223 E0.02722
G1 X213.719 Y306.037 E0.01336
G1 X214.181 Y305.706 E0.02773
G1 X214.425 Y305.573 E0.01358
G1 X214.675 Y305.462 E0.01335
G1 X215.218 Y305.296 E0.02773
G1 X215.765 Y305.223 E0.02691
G1 X216.332 Y305.240 E0.02773
G1 X216.607 Y305.282 E0.01358
G1 X216.873 Y305.346 E0.01335
G1 X217.406 Y305.544 E0.02773
G1 X217.884 Y305.817 E0.02691
G1 X218.325 Y306.176 E0.02773
G1 X218.518 Y306.376 E0.01358
G1 X219.261 Y307.287 E0.05739
G1 X219.261 Y275.625 E1.54561
G1 X219.202 Y275.257 E0.01819
G1 X219.113 Y275.043 E0.01130
G1 X218.886 Y274.730 E0.01891
G1 X218.710 Y274.580 E0.01130
G1 X218.353 Y274.398 E0.01953
G1 X217.970 Y274.337 E0.01892
G1 X186.365 Y274.337 E1.54284
G1 X187.429 Y275.280 E0.06940
G1 X187.606 Y275.480 E0.01304
G1 X187.930 Y275.953 E0.02794
G1 X188.053 Y276.190 E0.01304
G1 X188.251 Y276.720 E0.02763
G1 X188.359 Y277.275 E0.02763
G1 X188.378 Y277.542 E0.01304
G1 X188.349 Y278.107 E0.02763
G1 X188.229 Y278.660 E0.02763
G1 X188.141 Y278.912 E0.01304
G1 X187.890 Y279.420 E0.02763
G1 X187.564 Y279.874 E0.02731
G1 X187.164 Y280.275 E0.02763
G1 X186.948 Y280.443 E0.01336
G1 X186.720 Y280.593 E0.01336
G1 X186.212 Y280.844 E0.02763
G1 X185.677 Y281.008 E0.02731
G1 X185.116 Y281.083 E0.02763
G1 X184.849 Y281.086 E0.01304
G1 X184.280 Y281.022 E0.02794
G1 X183.754 Y280.874 E0.02669
G1 X183.235 Y280.631 E0.02794
G1 X183.009 Y280.489 E0.01304
G1 X182.570 Y280.132 E0.02763
G1 X181.690 Y279.140 E0.06473
G1 X181.054 Y278.905 F7800.000
G1 X182.338 Y278.711
;TYPE:Gap fill
G1 F1200.000
G1 X182.301 Y278.650 E0.00533
G1 X182.338 Y278.711 F7800.000
G1 F1200.000
G1 X182.375 Y278.771 E0.00509
G1 X182.412 Y278.832 E0.00485
G1 X182.509 Y278.984 E0.01175
G1 X182.676 Y279.203 E0.01921
G1 X183.045 Y279.636 E0.03673
G1 X183.563 Y280.029 E0.04196
G1 X184.202 Y280.293 E0.04454
G1 X184.859 Y280.400 E0.04298
G1 X185.517 Y280.341 E0.04259
G1 X185.958 Y280.204 E0.02981
G1 X186.452 Y279.952 E0.03577
G1 X186.883 Y279.597 E0.03603
G1 X187.304 Y279.068 E0.04360
G1 X187.570 Y278.474 E0.04199
G1 X187.668 Y278.016 E0.03020
G1 X187.675 Y277.366 E0.04191
G1 X187.585 Y276.908 E0.03015
G1 X187.337 Y276.308 E0.04187
G1 X187.064 Y275.903 E0.03149
G1 X186.549 Y275.419 E0.04565
G1 X186.330 Y275.253 E0.01841
G1 X186.109 Y275.126 E0.01798
G1 X185.923 Y275.022 E0.01641
G1 X185.303 Y274.663 F7800.000
G1 F1200.000
G1 X185.215 Y274.622 E0.00096
G1 X185.115 Y274.581 E0.00150
G1 X185.058 Y274.561 E0.00112
G1 X185.002 Y274.541 E0.00136
G1 X184.946 Y274.520 E0.00160
G1 X184.890 Y274.500 E0.00184
G1 X184.833 Y274.480 E0.00208
G1 X184.777 Y274.459 E0.00232
G1 X184.721 Y274.439 E0.00255
G1 X184.665 Y274.418 E0.00279
G1 X184.608 Y274.398 E0.00303
G1 X184.552 Y274.378 E0.00327
G1 X184.449 Y274.344 E0.00637
G1 X184.356 Y274.319 E0.00630
G1 X184.016 Y274.360 E0.02503
G1 X183.793 Y274.402 E0.01865
G1 X183.499 Y275.289 F7800.000
G1 F1200.000
G1 X183.248 Y275.502 E0.01910
G1 X182.821 Y275.925 E0.03957
G1 X182.789 Y275.967 E0.00333
G1 X182.757 Y276.010 E0.00315
G1 X182.576 Y276.204 E0.01476
G1 X181.686 Y276.497 F7800.000
G1 F1200.000
G1 X181.671 Y276.587 E0.00715
G1 X181.655 Y276.677 E0.00678
G1 X181.639 Y276.767 E0.00641
G1 X181.618 Y276.898 E0.00872
G1 X181.612 Y276.938 E0.00260
G1 X181.622 Y277.079 E0.01024
G1 X181.638 Y277.129 E0.00361
G1 X181.653 Y277.179 E0.00340
G1 X181.669 Y277.230 E0.00320
G1 X181.685 Y277.280 E0.00299
G1 X181.701 Y277.330 E0.00279
G1 X181.716 Y277.380 E0.00258
G1 X181.732 Y277.431 E0.00237
G1 X181.748 Y277.481 E0.00217
G1 X181.764 Y277.531 E0.00196
G1 X181.779 Y277.581 E0.00176
G1 X181.803 Y277.652 E0.00218
G1 X181.837 Y277.731 E0.00232
G1 X181.863 Y277.790 E0.00149
G1 X181.890 Y277.849 E0.00122
G1 X181.917 Y277.909 E0.00096
G1 X181.956 Y277.997 E0.00105
G1 X180.918 Y278.164 F7800.000
G1 F1200.000
G1 X180.933 Y278.280 E0.00711
G1 X180.918 Y281.694 E0.22164
G1 X180.890 Y281.735 E0.00297
G1 X180.862 Y281.776 E0.00279
G1 X180.834 Y281.817 E0.00260
G1 X180.807 Y281.859 E0.00242
G1 X180.731 Y281.971 E0.00607
G1 E-3.00000 F2400.00000
G1 X180.918 Y278.164 F7800.000
G1 E3.00000 F2400.00000
G1 F1200.000
G1 X180.903 Y278.049 E0.00667
G1 X180.887 Y277.933 E0.00622
G1 X180.872 Y277.818 E0.00578
G1 X180.857 Y277.703 E0.00534
G1 E-3.00000 F2400.00000
G1 X180.933 Y275.624 F7800.000
G1 E3.00000 F2400.00000
G1 F1200.000
G1 X180.952 Y275.436 E0.01177
G1 X180.998 Y275.036 E0.02390
G1 X181.014 Y274.946 E0.00510
G1 X181.030 Y274.855 E0.00478
G1 X181.063 Y274.703 E0.00760
G1 X181.079 Y274.640 E0.00294
G1 X181.096 Y274.578 E0.00272
G1 X181.113 Y274.516 E0.00250
G1 X181.130 Y274.453 E0.00229
G1 X181.164 Y274.342 E0.00371
G1 X181.181 Y274.294 E0.00146
G1 X181.199 Y274.246 E0.00128
G1 X181.216 Y274.198 E0.00110
G1 X181.234 Y274.150 E0.00092
G1 X181.264 Y274.052 E0.00133
G1 X181.319 Y273.988 E0.00084
G1 X181.443 Y273.941 E0.00185
G1 X181.491 Y273.923 E0.00092
G1 X181.539 Y273.906 E0.00110
G1 X181.588 Y273.888 E0.00128
G1 X181.636 Y273.871 E0.00146
