;FLAVOR:Marlin
;TIME:1207
;Filament used: 2.31791m
;Layer height: 0.2
;Generated with Cura_SteamEngine 3.6.0
M140 S60
M105
M190 S60
M104 S200
M105
M109 S200
M82 ;absolute extrusion mode
G21 ;metric values
G90 ;absolute positioning
M82 ;set extruder to absolute mode
M107 ;start with the fan off
G28 X0 Y0 ;move X/Y to min endstops
G28 Z0 ;move Z to min endstops
G1 Z15.0 F100 ;move the platform down 15mm
G92 E0 ;zero the extruded length
G1 F200 E3 ;extrude 3mm of feed stock
G92 E0 ;zero the extruded length again
G1 F100
M117 Printing...
G5
G92 E0
G1 F2400 E-6
;LAYER_COUNT:2
;LAYER:0
M106 S255
M204 S3000
M205 X10 Y10
G0 F3000 X8.555 Y8.783 Z0.3
M204 S1800
M205 X8 Y8
;TYPE:SKIRT
G1 F2400 E0
G1 X8.894 Y8.444 E0.03349
G1 X9.837 Y7.583 E0.12267
G1 X10.367 Y7.158 E0.17013
G1 X12.309 Y5.797 E0.33576
G1 X12.819 Y5.481 E0.37767
G1 X13.885 Y4.902 E0.4624
G1 X14.323 Y4.69 E0.49638
G1 X15.703 Y4.098 E0.60127
G1 X16.192 Y3.916 E0.63771
G1 X17.598 Y3.471 E0.74072
G1 X18.089 Y3.341 E0.77619
G1 X19.481 Y3.044 E0.87561
G1 X19.996 Y2.961 E0.91204
G1 X21.488 Y2.794 E1.0169
G1 X22.028 Y2.761 E1.05469
G1 X23.6 Y2.747 E1.16449
G1 X24.091 Y2.766 E1.19881
G1 X25.358 Y2.873 E1.28762
G1 X25.858 Y2.939 E1.32285
G1 X27.366 Y3.213 E1.4299
G1 X27.897 Y3.338 E1.468
G1 X29.406 Y3.777 E1.57777
G1 X29.793 Y3.906 E1.60626
G1 X35.874 Y6.198 E2.06017
G1 X40.987 Y7.784 E2.43408
G1 X46.21 Y9.085 E2.81003
G1 X48.821 Y9.621 E2.9962
G1 X51.393 Y10.07 E3.17857
G1 X56.763 Y10.778 E3.55689
G1 X62.092 Y11.176 E3.93013
G1 X67.45 Y11.272 E4.30443
G1 X72.807 Y11.065 E4.67888
G1 X78.141 Y10.556 E5.05313
G1 X83.425 Y9.748 E5.42649
G1 X88.676 Y8.638 E5.80135
G1 X93.84 Y7.237 E6.17508
G1 X98.957 Y5.533 E6.55178
G1 X102.892 Y4.021 E6.84621
G1 X103.192 Y3.916 E6.86841
G1 X104.597 Y3.471 E6.97135
G1 X105.089 Y3.341 E7.0069
G1 X106.481 Y3.044 E7.10631
G1 X106.996 Y2.961 E7.14275
G1 X108.488 Y2.794 E7.24761
G1 X109.028 Y2.761 E7.28539
G1 X110.6 Y2.747 E7.3952
G1 X111.091 Y2.766 E7.42952
G1 X112.358 Y2.873 E7.51833
G1 X112.858 Y2.939 E7.55355
G1 X114.366 Y3.213 E7.66061
G1 X115.056 Y3.387 E7.71031
G1 X117.318 Y4.123 E7.87645
G1 X117.679 Y4.255 E7.9033
G1 X120.58 Y5.439 E8.12215
G1 X125.629 Y7.242 E8.49662
G1 X130.783 Y8.761 E8.87191
G1 X136.065 Y9.999 E9.25084
G1 X138.597 Y10.478 E9.43083
G1 X143.926 Y11.257 E9.80699
G1 X149.265 Y11.731 E10.18137
G1 X154.621 Y11.902 E10.55566
G1 X159.962 Y11.771 E10.92882
G1 X165.324 Y11.335 E11.30457
G1 X170.616 Y10.602 E11.67773
G1 X175.918 Y9.559 E12.05515
G1 X178.464 Y8.945 E12.23808
G1 X181.028 Y8.25 E12.42362
G1 X186.16 Y6.621 E12.7997
G1 X192.651 Y4.107 E13.28589
G1 X192.915 Y4.013 E13.30546
G1 X194.442 Y3.513 E13.41769
G1 X194.904 Y3.385 E13.45117
G1 X196.107 Y3.109 E13.53738
G1 X196.77 Y3 E13.58431
G1 X199.115 Y2.769 E13.74889
G1 X199.788 Y2.746 E13.79593
G1 X201.388 Y2.793 E13.90773
G1 X201.844 Y2.826 E13.93966
G1 X202.935 Y2.953 E14.01638
G1 X203.427 Y3.034 E14.05121
G1 X204.972 Y3.364 E14.16155
G1 X205.447 Y3.489 E14.19586
G1 X206.74 Y3.894 E14.2905
G1 X207.154 Y4.043 E14.32123
G1 X210.575 Y5.437 E14.57925
G1 X215.629 Y7.242 E14.95409
G1 X220.783 Y8.761 E15.32939
G1 X226.065 Y9.999 E15.70831
G1 X228.597 Y10.478 E15.8883
G1 X233.926 Y11.257 E16.26447
G1 X239.265 Y11.731 E16.63884
G1 X244.621 Y11.902 E17.01313
G1 X249.962 Y11.771 E17.38629
G1 X255.324 Y11.335 E17.76204
G1 X260.616 Y10.602 E18.1352
G1 X265.918 Y9.559 E18.51262
G1 X268.464 Y8.945 E18.69555
G1 X271.028 Y8.25 E18.8811
G1 X276.16 Y6.621 E19.25717
G1 X282.651 Y4.107 E19.74336
G1 X282.915 Y4.013 E19.76293
G1 X284.442 Y3.513 E19.87516
G1 X284.904 Y3.385 E19.90865
G1 X286.107 Y3.109 E19.99485
G1 X286.77 Y3 E20.04178
G1 X289.115 Y2.769 E20.20637
G1 X289.788 Y2.746 E20.2534
G1 X291.388 Y2.793 E20.3652
G1 X291.844 Y2.826 E20.39714
G1 X292.935 Y2.953 E20.47385
G1 X293.427 Y3.034 E20.50868
G1 X294.972 Y3.364 E20.61903
G1 X295.447 Y3.489 E20.65333
G1 X296.74 Y3.894 E20.74797
G1 X297.025 Y3.993 E20.76904
G1 X302.865 Y6.195 E21.20498
G1 X307.987 Y7.784 E21.57955
G1 X313.21 Y9.085 E21.95551
G1 X315.821 Y9.621 E22.14168
G1 X318.393 Y10.07 E22.32404
G1 X323.763 Y10.778 E22.70236
G1 X329.092 Y11.176 E23.07561
G1 X334.45 Y11.272 E23.4499
G1 X339.807 Y11.065 E23.82435
G1 X345.141 Y10.556 E24.1986
G1 X350.425 Y9.748 E24.57196
G1 X355.676 Y8.638 E24.94683
G1 X360.84 Y7.237 E25.32055
G1 X365.957 Y5.533 E25.69725
G1 X369.892 Y4.021 E25.99169
G1 X370.192 Y3.916 E26.01389
G1 X371.597 Y3.471 E26.11683
G1 X372.089 Y3.341 E26.15237
G1 X373.481 Y3.044 E26.25178
G1 X373.996 Y2.961 E26.28822
G1 X375.488 Y2.794 E26.39308
G1 X376.028 Y2.761 E26.43087
G1 X377.6 Y2.747 E26.54067
G1 X378.091 Y2.766 E26.57499
G1 X379.358 Y2.873 E26.6638
G1 X379.858 Y2.939 E26.69903
G1 X381.366 Y3.213 E26.80608
G1 X382.05 Y3.385 E26.85534
G1 X384.28 Y4.108 E27.01908
G1 X384.898 Y4.353 E27.06552
G1 X386.3 Y5.012 E27.17372
G1 X386.782 Y5.27 E27.2119
G1 X388.119 Y6.077 E27.32098
G1 X388.574 Y6.384 E27.35932
G1 X389.81 Y7.318 E27.46752
G1 X390.222 Y7.664 E27.5051
G1 X391.317 Y8.682 E27.60953
G1 X391.696 Y9.073 E27.64756
G1 X392.749 Y10.277 E27.75928
G1 X393.043 Y10.645 E27.79218
G1 X393.734 Y11.594 E27.87418
G1 X393.985 Y11.972 E27.90587
G1 X394.687 Y13.134 E28.00069
G1 X394.95 Y13.626 E28.03966
G1 X395.68 Y15.186 E28.15996
G1 X395.897 Y15.724 E28.20048
G1 X396.407 Y17.224 E28.31114
G1 X396.552 Y17.734 E28.34817
G1 X396.883 Y19.165 E28.45076
G1 X396.979 Y19.708 E28.48927
G1 X397.176 Y21.303 E28.60152
G1 X397.215 Y21.846 E28.63955
G1 X397.245 Y23.362 E28.74546
G1 X397.23 Y23.881 E28.78172
G1 X397.115 Y25.339 E28.88387
G1 X397.049 Y25.849 E28.91979
G1 X396.795 Y27.276 E29.02103
G1 X396.694 Y27.729 E29.05345
G1 X396.366 Y28.942 E29.14121
G1 X396.224 Y29.387 E29.17384
G1 X393.469 Y36.874 E29.73106
G1 X391.928 Y42.041 E30.10766
G1 X391.276 Y44.618 E30.29333
G1 X390.708 Y47.173 E30.47614
G1 X389.759 Y52.486 E30.85311
G1 X389.115 Y57.815 E31.22803
G1 X388.776 Y63.143 E31.60092
G1 X388.737 Y68.504 E31.97538
G1 X389.003 Y73.873 E32.35084
G1 X389.569 Y79.186 E32.72403
G1 X390.443 Y84.513 E33.10108
G1 X390.974 Y87.064 E33.28308
G1 X391.594 Y89.674 E33.47045
G1 X393.06 Y94.856 E33.8466
G1 X394.826 Y99.975 E34.22482
G1 X396.196 Y103.538 E34.49144
G1 X396.374 Y104.09 E34.53195
G1 X396.768 Y105.588 E34.64014
G1 X396.878 Y106.114 E34.67768
G1 X397.117 Y107.64 E34.78556
G1 X397.174 Y108.187 E34.82397
G1 X397.253 Y109.729 E34.93182
G1 X397.253 Y110.269 E34.96954
G1 X397.174 Y111.811 E35.07738
G1 X397.118 Y112.351 E35.1153
G1 X396.883 Y113.864 E35.22224
G1 X396.745 Y114.496 E35.26743
G1 X396.189 Y116.454 E35.40959
G1 X396.008 Y116.984 E35.44871
G1 X394.705 Y120.22 E35.69237
G1 X392.844 Y125.368 E36.07471
G1 X392.074 Y127.818 E36.25409
G1 X390.663 Y133.079 E36.63453
G1 X389.575 Y138.304 E37.00731
G1 X388.783 Y143.577 E37.37974
G1 X388.288 Y148.928 E37.75508
G1 X388.095 Y154.288 E38.1297
G1 X388.206 Y159.645 E38.50395
G1 X388.619 Y164.971 E38.87707
G1 X389.335 Y170.287 E39.25172
G1 X390.351 Y175.562 E39.62693
G1 X390.961 Y178.134 E39.81156
G1 X392.422 Y183.308 E40.18708
G1 X394.179 Y188.408 E40.56384
G1 X395.945 Y192.848 E40.89759
G1 X396.077 Y193.219 E40.92509
G1 X396.529 Y194.66 E41.03057
G1 X396.664 Y195.182 E41.06823
G1 X396.975 Y196.702 E41.1766
G1 X397.057 Y197.242 E41.21475
G1 X397.209 Y198.785 E41.32304
G1 X397.234 Y199.324 E41.36073
G1 X397.228 Y200.836 E41.46634
G1 X397.199 Y201.364 E41.50327
G1 X397.043 Y202.857 E41.60812
G1 X396.976 Y203.31 E41.64011
G1 X396.754 Y204.458 E41.72178
G1 X396.652 Y204.889 E41.75271
G1 X396.282 Y206.201 E41.84792
G1 X396.118 Y206.689 E41.88388
G1 X393.74 Y212.778 E42.34046
G1 X392.063 Y217.86 E42.71424
G1 X390.663 Y223.079 E43.09166
G1 X389.575 Y228.304 E43.46443
G1 X388.783 Y233.577 E43.83687
G1 X388.288 Y238.928 E44.21221
G1 X388.095 Y244.288 E44.58683
G1 X388.206 Y249.645 E44.96107
G1 X388.619 Y254.971 E45.33419
G1 X389.335 Y260.287 E45.70885
G1 X390.351 Y265.562 E46.08406
G1 X390.961 Y268.134 E46.26869
G1 X392.422 Y273.308 E46.6442
G1 X394.179 Y278.408 E47.02097
G1 X395.945 Y282.848 E47.35471
G1 X396.077 Y283.219 E47.38222
G1 X396.529 Y284.66 E47.4877
G1 X396.664 Y285.182 E47.52536
G1 X396.975 Y286.702 E47.63373
G1 X397.057 Y287.242 E47.67188
G1 X397.209 Y288.785 E47.78017
G1 X397.234 Y289.324 E47.81786
G1 X397.228 Y290.836 E47.92347
G1 X397.199 Y291.364 E47.9604
G1 X397.043 Y292.857 E48.06525
G1 X396.976 Y293.31 E48.09723
G1 X396.754 Y294.458 E48.1789
G1 X396.652 Y294.889 E48.20984
G1 X396.282 Y296.201 E48.30505
G1 X396.132 Y296.652 E48.33825
G1 X394.355 Y301.305 E48.68614
G1 X392.669 Y306.423 E49.06251
G1 X391.269 Y311.65 E49.44046
G1 X390.708 Y314.173 E49.62099
G1 X389.759 Y319.486 E49.99795
G1 X389.115 Y324.815 E50.37287
G1 X388.776 Y330.143 E50.74577
G1 X388.737 Y335.504 E51.12022
G1 X389.003 Y340.873 E51.49569
G1 X389.569 Y346.186 E51.86888
G1 X390.443 Y351.513 E52.24593
G1 X390.974 Y354.064 E52.42792
G1 X391.594 Y356.674 E52.6153
G1 X393.06 Y361.856 E52.99144
G1 X394.826 Y366.975 E53.36967
G1 X396.196 Y370.538 E53.63629
G1 X396.374 Y371.09 E53.6768
G1 X396.768 Y372.588 E53.78499
G1 X396.878 Y373.114 E53.82252
G1 X397.117 Y374.64 E53.93041
G1 X397.174 Y375.187 E53.96882
G1 X397.253 Y376.729 E54.07666
G1 X397.253 Y377.269 E54.11438
G1 X397.174 Y378.811 E54.22223
G1 X397.118 Y379.351 E54.26015
G1 X396.883 Y380.864 E54.36709
G1 X396.745 Y381.496 E54.41227
G1 X396.189 Y383.454 E54.55444
G1 X396.008 Y383.985 E54.59362
G1 X395.509 Y385.224 E54.68692
G1 X395.261 Y385.751 E54.7276
G1 X394.405 Y387.343 E54.85385
G1 X394.124 Y387.808 E54.8918
G1 X393.334 Y388.972 E54.99005
G1 X393.012 Y389.398 E55.02735
G1 X392.004 Y390.601 E55.13697
G1 X391.622 Y391.011 E55.17611
G1 X390.471 Y392.121 E55.2878
G1 X390.094 Y392.451 E55.3228
G1 X389.046 Y393.285 E55.41634
G1 X388.635 Y393.581 E55.45172
G1 X387.384 Y394.394 E55.55593
G1 X386.913 Y394.667 E55.59395
G1 X385.53 Y395.375 E55.70247
G1 X385.079 Y395.58 E55.73708
G1 X383.865 Y396.064 E55.82836
G1 X383.381 Y396.23 E55.8641
G1 X381.906 Y396.658 E55.97137
G1 X381.389 Y396.78 E56.00847
G1 X379.87 Y397.059 E56.11634
G1 X379.322 Y397.13 E56.15494
G1 X377.778 Y397.249 E56.2631
G1 X377.235 Y397.263 E56.30104
G1 X375.697 Y397.223 E56.4085
G1 X375.16 Y397.182 E56.44612
G1 X373.645 Y396.987 E56.55281
G1 X373.014 Y396.866 E56.59768
G1 X371.061 Y396.368 E56.73846
G1 X370.497 Y396.19 E56.77977
G1 X365.851 Y394.432 E57.12673
G1 X360.747 Y392.738 E57.50235
G1 X355.493 Y391.318 E57.88248
G1 X352.996 Y390.759 E58.06121
G1 X347.677 Y389.797 E58.43875
G1 X342.355 Y389.143 E58.81327
G1 X337.008 Y388.792 E59.18754
G1 X331.649 Y388.742 E59.56186
G1 X326.294 Y388.997 E59.93631
G1 X320.979 Y389.552 E60.30956
G1 X315.644 Y390.416 E60.68705
G1 X313.102 Y390.939 E60.86832
G1 X310.471 Y391.558 E61.0571
G1 X305.307 Y393.008 E61.43173
G1 X300.188 Y394.763 E61.80971
G1 X296.833 Y396.076 E62.06135
G1 X296.381 Y396.23 E62.0947
G1 X294.907 Y396.658 E62.2019
G1 X294.389 Y396.78 E62.23907
G1 X292.87 Y397.059 E62.34695
G1 X292.322 Y397.13 E62.38554
G1 X290.778 Y397.249 E62.4937
G1 X290.235 Y397.263 E62.53164
G1 X288.697 Y397.223 E62.6391
G1 X288.16 Y397.182 E62.67672
G1 X286.645 Y396.987 E62.78341
G1 X286.014 Y396.866 E62.82829
G1 X284.061 Y396.368 E62.96906
G1 X283.449 Y396.172 E63.01395
G1 X277.339 Y393.792 E63.47194
G1 X272.268 Y392.11 E63.84511
G1 X267.048 Y390.7 E64.22277
G1 X264.519 Y390.132 E64.40381
G1 X259.194 Y389.169 E64.78178
G1 X253.906 Y388.518 E65.15391
G1 X248.541 Y388.165 E65.52945
G1 X243.181 Y388.114 E65.90384
G1 X237.831 Y388.367 E66.27794
G1 X232.512 Y388.922 E66.65146
G1 X227.185 Y389.784 E67.02838
G1 X224.656 Y390.303 E67.2087
G1 X219.396 Y391.619 E67.58741
G1 X214.254 Y393.221 E67.96359
G1 X211.755 Y394.116 E68.14899
G1 X208.43 Y395.432 E68.39876
G1 X208.326 Y395.472 E68.40654
G1 X205.996 Y396.338 E68.58016
G1 X205.349 Y396.533 E68.62736
G1 X203.769 Y396.899 E68.74064
G1 X203.228 Y396.995 E68.77902
G1 X201.74 Y397.18 E68.88375
G1 X201.206 Y397.219 E68.92114
G1 X199.672 Y397.253 E69.02832
G1 X199.122 Y397.236 E69.06675
G1 X197.542 Y397.106 E69.17748
G1 X196.853 Y397.003 E69.22614
G1 X194.448 Y396.48 E69.39804
G1 X193.66 Y396.244 E69.4555
G1 X187.338 Y393.792 E69.92912
G1 X182.268 Y392.11 E70.30222
G1 X177.048 Y390.7 E70.67988
G1 X174.519 Y390.132 E70.86092
G1 X169.194 Y389.169 E71.23889
G1 X163.906 Y388.518 E71.61102
G1 X158.541 Y388.165 E71.98656
G1 X153.181 Y388.114 E72.36095
G1 X147.831 Y388.367 E72.73505
G1 X142.512 Y388.922 E73.10857
G1 X137.185 Y389.784 E73.48549
G1 X134.656 Y390.303 E73.66581
G1 X129.396 Y391.619 E74.04452
G1 X124.254 Y393.221 E74.4207
G1 X121.755 Y394.116 E74.6061
G1 X118.43 Y395.432 E74.85587
G1 X118.326 Y395.472 E74.86365
G1 X115.996 Y396.338 E75.03727
G1 X115.349 Y396.533 E75.08447
G1 X113.769 Y396.899 E75.19775
G1 X113.228 Y396.995 E75.23613
G1 X111.74 Y397.18 E75.34086
G1 X111.206 Y397.219 E75.37826
G1 X109.672 Y397.253 E75.48543
G1 X109.209 Y397.243 E75.51777
G1 X108.038 Y397.166 E75.59974
G1 X107.55 Y397.111 E75.63404
G1 X106.025 Y396.867 E75.74191
G1 X105.589 Y396.778 E75.77299
G1 X104.495 Y396.507 E75.85171
G1 X103.914 Y396.327 E75.8942
G1 X98.854 Y394.433 E76.27157
G1 X93.747 Y392.738 E76.6474
G1 X88.493 Y391.318 E77.02754
G1 X85.996 Y390.759 E77.20627
G1 X80.677 Y389.797 E77.58381
G1 X75.355 Y389.143 E77.95832
G1 X70.008 Y388.792 E78.3326
G1 X64.649 Y388.742 E78.70692
G1 X59.294 Y388.997 E79.08137
G1 X53.979 Y389.552 E79.45462
G1 X48.644 Y390.416 E79.83211
G1 X46.102 Y390.939 E80.01337
G1 X43.471 Y391.558 E80.20216
G1 X38.307 Y393.008 E80.57679
G1 X33.188 Y394.763 E80.95476
G1 X29.833 Y396.076 E81.2064
G1 X29.381 Y396.23 E81.23976
G1 X27.907 Y396.658 E81.34696
G1 X27.389 Y396.78 E81.38413
G1 X25.87 Y397.059 E81.492
G1 X25.322 Y397.13 E81.5306
G1 X23.778 Y397.249 E81.63876
G1 X23.235 Y397.263 E81.6767
G1 X21.697 Y397.223 E81.78416
G1 X20.991 Y397.157 E81.83369
G1 X18.647 Y396.778 E81.99953
G1 X18.131 Y396.668 E82.03638
G1 X17.211 Y396.423 E82.10288
G1 X16.756 Y396.28 E82.1362
G1 X15.315 Y395.753 E82.24336
G1 X14.815 Y395.54 E82.28132
G1 X13.41 Y394.855 E82.3905
G1 X12.969 Y394.613 E82.42563
G1 X11.846 Y393.926 E82.51759
G1 X11.428 Y393.642 E82.55288
G1 X10.215 Y392.73 E82.65888
G1 X9.798 Y392.382 E82.69682
G1 X8.661 Y391.328 E82.80511
G1 X8.177 Y390.815 E82.85437
G1 X6.672 Y388.99 E83.01959
G1 X6.328 Y388.522 E83.06016
G1 X5.707 Y387.573 E83.13937
G1 X5.451 Y387.137 E83.17469
G1 X4.703 Y385.713 E83.28703
G1 X4.473 Y385.216 E83.32528
G1 X3.906 Y383.796 E83.43208
G1 X3.732 Y383.286 E83.46972
G1 X3.308 Y381.799 E83.57772
G1 X3.206 Y381.372 E83.60838
G1 X2.995 Y380.301 E83.68463
G1 X2.922 Y379.817 E83.71881
G1 X2.766 Y378.291 E83.82596
G1 X2.739 Y377.751 E83.86372
G1 X2.74 Y376.235 E83.96961
G1 X2.768 Y375.695 E84.00737
G1 X2.929 Y374.138 E84.1167
G1 X3.013 Y373.6 E84.15474
G1 X3.323 Y372.118 E84.26049
G1 X3.527 Y371.401 E84.31256
G1 X6.36 Y363.579 E84.89362
G1 X7.924 Y358.422 E85.27002
G1 X9.202 Y353.165 E85.6479
G1 X9.704 Y350.623 E85.82888
G1 X10.527 Y345.296 E86.20536
G1 X11.043 Y339.977 E86.57862
G1 X11.258 Y334.604 E86.9542
G1 X11.171 Y329.265 E87.32716
G1 X10.779 Y323.913 E87.70198
G1 X10.088 Y318.602 E88.07606
G1 X9.089 Y313.301 E88.45283
G1 X8.495 Y310.747 E88.63598
G1 X7.815 Y308.157 E88.82301
G1 X6.236 Y303.039 E89.19711
G1 X4.022 Y297.148 E89.63668
G1 X3.905 Y296.799 E89.66239
G1 X3.327 Y294.86 E89.80371
G1 X3.207 Y294.376 E89.83854
G1 X2.995 Y293.304 E89.91486
G1 X2.922 Y292.817 E89.94926
G1 X2.766 Y291.291 E90.0564
G1 X2.739 Y290.751 E90.09416
G1 X2.74 Y289.235 E90.20005
G1 X2.768 Y288.695 E90.23782
G1 X2.929 Y287.138 E90.34715
G1 X3.013 Y286.6 E90.38518
G1 X3.323 Y285.118 E90.49093
G1 X3.475 Y284.551 E90.53194
G1 X4.035 Y282.846 E90.65728
G1 X4.168 Y282.485 E90.68415
G1 X5.307 Y279.716 E90.89328
G1 X7.143 Y274.636 E91.27056
G1 X8.672 Y269.511 E91.64412
G1 X9.924 Y264.254 E92.02157
G1 X10.415 Y261.708 E92.20267
G1 X11.212 Y256.377 E92.57916
G1 X11.706 Y251.035 E92.95387
G1 X11.896 Y245.681 E93.32806
G1 X11.783 Y240.321 E93.70252
G1 X11.368 Y234.98 E94.0767
G1 X10.652 Y229.68 E94.45025
G1 X9.631 Y224.387 E94.82676
G1 X9.025 Y221.837 E95.00983
G1 X8.333 Y219.251 E95.1968
G1 X6.713 Y214.083 E95.57509
