; generated by SuperSlicer 2.3.55 on 2021-03-22 at 17:55:11 UTC

; 

; external perimeters extrusion width = 1.12mm
; perimeters extrusion width = 1.12mm
; infill extrusion width = 1.12mm
; solid infill extrusion width = 1.12mm
; top infill extrusion width = 1.12mm
; support material extrusion width = 1.12mm
; first layer extrusion width = 1.12mm

; object:{"name":"Rinforzo asse y scatolato 2020 anteriore Chiron","id":"Rinforzo asse y scatolato 2020 anteriore Chiron.stl id:0 copy 0","object_center":[205.000000,229.000000,0.000000],"boundingbox_center":[205.000000,229.000000,11.800003],"boundingbox_size":[45.000000,22.000000,23.600006]}
; object:{"name":"Rinforzo asse y scatolato 2020 posteriore Chiron","id":"Rinforzo asse y scatolato 2020 posteriore Chiron.stl id:1 copy 0","object_center":[205.000000,201.000000,0.000000],"boundingbox_center":[205.000000,201.000000,11.800003],"boundingbox_size":[45.000000,22.000000,23.600006]}
; plater:{"center":[205.000000,215.000000,0.000000],"boundingbox_center":[205.000000,215.000000,11.800003],"boundingbox_size":[45.000000,50.000000,23.600006]}

M73 P0 R26
;TYPE:Custom
G90 ; use absolute coordinates
M83 ; extruder relative mode
M104 S215 ; set extruder temp
M140 S50 ; set bed temp
M190 S50 ; wait for bed temp
M109 S215 ; wait for extruder temp
G28 ; home all
G1 Z2 F240
G1 X2 Y10 F3000
G1 Z0.28 F240
G92 E0.0
G1 Y190 E15.0 F1500.0 ; intro line
G1 X2.3 F5000
G1 Y10 E30 F1200.0 ; intro line
G92 E0.0
G21 ; set units to millimeters
G90 ; use absolute coordinates
M83 ; use relative distances for extrusion
; Filament gcode
;LAYER_CHANGE
;Z:0.6
;HEIGHT:0.6
;BEFORE_LAYER_CHANGE
;0.6
M117 Layer 1 of 39

M73 P1 R26
G1 Z0.800000 F7800.000
;AFTER_LAYER_CHANGE
;0.6
G1 E-12.02641 F3600.000
G1 X180.020 Y189.848 F7800.000
G1 E12.02641 F3600.000
;TYPE:Skirt
;WIDTH:1.12
G1 F1800.000
G1 X186.148 Y185.026 E4.63757
G1 X187.565 Y184.156 E0.98925
G1 X188.946 Y183.669 E0.87069
G1 X190.363 Y183.504 E0.84836
G1 X219.606 Y183.504 E17.39228
G1 X220.498 Y183.567 E0.53134
G1 X221.366 Y183.749 E0.52761
G1 X222.201 Y184.048 E0.52761
G1 X222.993 Y184.461 E0.53134
G1 X224.124 Y185.225 E0.81181
G1 X230.054 Y189.908 E4.49381
G1 X230.777 Y190.608 E0.59857
G1 X232.821 Y193.042 E1.89039
G1 X233.431 Y194.120 E0.73661
G1 X233.826 Y195.294 E0.73661
G1 X233.996 Y196.742 E0.86697
G1 X233.995 Y237.503 E24.24262
G1 X233.917 Y238.393 E0.53134
G1 X233.717 Y239.264 E0.53134
G1 X233.401 Y240.099 E0.53134
G1 X232.972 Y240.883 E0.53134
G1 X232.277 Y241.785 E0.67694
G1 X230.290 Y243.797 E1.68186
G1 X229.467 Y244.439 E0.62097
G1 X228.551 Y244.940 E0.62097
G1 X227.112 Y245.391 E0.89673
G1 X220.444 Y246.480 E4.01847
G1 X189.673 Y246.487 E18.30091
G1 X182.697 Y245.352 E4.20322
G1 X181.612 Y245.010 E0.67694
G1 X180.603 Y244.483 E0.67694
G1 X179.532 Y243.628 E0.81485
G1 X177.743 Y241.807 E1.51809
G1 X177.153 Y241.071 E0.56123
G1 X176.712 Y240.331 E0.51266
G1 X176.370 Y239.533 E0.51640
G1 X176.138 Y238.696 E0.51640
G1 X176.020 Y237.836 E0.51640
G1 X176.006 Y196.624 E24.51051
G1 X176.086 Y195.740 E0.52761
G1 X176.286 Y194.876 E0.52761
G1 X176.602 Y194.047 E0.52761
G1 X177.028 Y193.269 E0.52761
G1 X179.203 Y190.631 E2.03316
G1 X179.911 Y189.951 E0.58400
; INIT printing object Rinforzo asse y scatolato 2020 anteriore Chiron.stl id:0 copy 0
G1 E-12.02641 F3600.000
; printing object Rinforzo asse y scatolato 2020 anteriore Chiron.stl id:0 copy 0
G1 X205.000 Y237.458 F7800.000
G1 E12.02641 F3600.000
;TYPE:Perimeter
G1 F1800.000
G1 X190.368 Y237.458 E8.70225
G1 X187.871 Y236.860 E1.52704
G1 X186.400 Y236.636 E0.88471
G1 X185.042 Y236.511 E0.81104
G1 X185.042 Y235.485 E0.61037
G1 X186.268 Y235.594 E0.73202
G1 X187.205 Y235.473 E0.56197
G1 X188.098 Y235.162 E0.56220
G1 X188.516 Y234.940 E0.28147
G1 X189.272 Y234.373 E0.56189
G1 X189.896 Y233.663 E0.56231
G1 X190.361 Y232.840 E0.56198
G1 X190.649 Y231.940 E0.56214
G1 X190.746 Y231.000 E0.56206
G1 X190.649 Y230.060 E0.56206
G1 X190.361 Y229.160 E0.56214
G1 X189.896 Y228.337 E0.56198
G1 X189.272 Y227.627 E0.56230
G1 X188.516 Y227.060 E0.56189
G1 X188.098 Y226.838 E0.28147
G1 X187.205 Y226.527 E0.56220
G1 X186.268 Y226.406 E0.56196
G1 X185.042 Y226.515 E0.73202
G1 X185.042 Y225.708 E0.48020
G1 X185.487 Y225.189 E0.40658
G1 X186.598 Y224.795 E0.70081
G1 X187.551 Y224.343 E0.62767
G1 X188.455 Y223.798 E0.62761
G1 X189.299 Y223.165 E0.62754
G1 X190.437 Y222.065 E0.94098
G1 X191.098 Y221.243 E0.62760
G1 X191.561 Y220.542 E0.49938
G1 X218.439 Y220.542 E15.98577
M73 P2 R26
G1 X218.902 Y221.243 E0.49938
G1 X219.563 Y222.065 E0.62760
G1 X220.701 Y223.165 E0.94098
G1 X221.545 Y223.798 E0.62754
G1 X222.449 Y224.343 E0.62761
G1 X223.402 Y224.795 E0.62767
G1 X224.513 Y225.189 E0.70081
G1 X224.958 Y225.708 E0.40658
G1 X224.958 Y226.482 E0.46055
G1 X223.495 Y226.418 E0.87047
G1 X222.566 Y226.587 E0.56203
G1 X221.690 Y226.943 E0.56212
G1 X220.906 Y227.471 E0.56221
G1 X220.246 Y228.148 E0.56201
G1 X219.739 Y228.945 E0.56208
G1 X219.406 Y229.830 E0.56209
G1 X219.260 Y230.763 E0.56214
G1 X219.309 Y231.707 E0.56209
G1 X219.550 Y232.621 E0.56203
G1 X219.972 Y233.467 E0.56213
G1 X220.559 Y234.208 E0.56217
G1 X221.284 Y234.813 E0.56199
G1 X222.119 Y235.257 E0.56215
G1 X222.566 Y235.413 E0.28148
G1 X223.495 Y235.582 E0.56203
G1 X224.958 Y235.518 E0.87047
G1 X224.958 Y236.511 E0.59071
G1 X223.600 Y236.636 E0.81104
G1 X222.129 Y236.860 E0.88471
G1 X219.632 Y237.458 E1.52704
G1 X205.150 Y237.458 E8.61304
G1 X205.000 Y238.449 F7800.000
G1 F1800.000
G1 X190.225 Y238.449 E8.78759
G1 X189.088 Y238.135 E0.70142
G1 X187.692 Y237.835 E0.84896
G1 X186.281 Y237.620 E0.84897
G1 X184.776 Y237.485 E0.89878
G1 X184.051 Y236.748 E0.61444
G1 X184.051 Y233.991 E1.64007
G1 X185.143 Y234.460 E0.70668
G1 X185.872 Y234.593 E0.44065
G1 X186.243 Y234.602 E0.22066
G1 X186.613 Y234.573 E0.22065
G1 X187.334 Y234.403 E0.44064
G1 X188.005 Y234.089 E0.44078
G1 X188.598 Y233.644 E0.44058
G1 X188.857 Y233.379 E0.22071
G1 X189.286 Y232.775 E0.44071
G1 X189.452 Y232.443 E0.22062
G1 X189.583 Y232.096 E0.22068
G1 X189.734 Y231.370 E0.44068
G1 X189.734 Y230.630 E0.44068
G1 X189.583 Y229.904 E0.44068
G1 X189.452 Y229.557 E0.22068
G1 X189.087 Y228.912 E0.44063
G1 X188.598 Y228.356 E0.44083
G1 X188.005 Y227.911 E0.44058
G1 X187.678 Y227.737 E0.22067
G1 X187.334 Y227.597 E0.22069
G1 X186.613 Y227.427 E0.44064
G1 X185.872 Y227.407 E0.44072
G1 X185.143 Y227.540 E0.44065
G1 X184.051 Y228.009 E0.70668
G1 X184.051 Y225.342 E1.58648
G1 X184.939 Y224.305 E0.81181
G1 X186.218 Y223.879 E0.80189
G1 X187.082 Y223.470 E0.56863
G1 X187.901 Y222.976 E0.56859
G1 X188.665 Y222.402 E0.56854
G1 X189.369 Y221.755 E0.56862
G1 X190.005 Y221.041 E0.56859
G1 X190.566 Y220.267 E0.56861
G1 X190.986 Y219.551 E0.49372
G1 X219.014 Y219.551 E16.66889
M73 P2 R25
G1 X219.434 Y220.267 E0.49372
G1 X219.995 Y221.041 E0.56861
G1 X220.631 Y221.755 E0.56859
G1 X221.335 Y222.402 E0.56862
G1 X222.099 Y222.976 E0.56854
G1 X222.918 Y223.470 E0.56859
G1 X223.782 Y223.879 E0.56863
G1 X225.061 Y224.305 E0.80189
G1 X225.949 Y225.342 E0.81181
G1 X225.949 Y227.969 E1.56252
G1 X224.678 Y227.493 E0.80728
G1 X223.943 Y227.398 E0.44062
G1 X223.572 Y227.407 E0.22066
G1 X222.843 Y227.540 E0.44066
G1 X222.157 Y227.819 E0.44072
G1 X221.838 Y228.010 E0.22069
G1 X221.270 Y228.485 E0.44064
G1 X220.810 Y229.066 E0.44075
G1 X220.478 Y229.729 E0.44072
G1 X220.290 Y230.445 E0.44065
G1 X220.251 Y230.815 E0.22067
G1 X220.290 Y231.555 E0.44070
G1 X220.478 Y232.271 E0.44066
G1 X220.627 Y232.611 E0.22069
G1 X221.025 Y233.236 E0.44069
G1 X221.270 Y233.515 E0.22067
G1 X221.838 Y233.990 E0.44064
G1 X222.157 Y234.181 E0.22069
G1 X222.843 Y234.460 E0.44072
G1 X223.572 Y234.593 E0.44066
G1 X223.943 Y234.602 E0.22066
G1 X224.678 Y234.507 E0.44062
G1 X225.949 Y234.031 E0.80728
G1 X225.949 Y236.748 E1.61610
G1 X225.224 Y237.485 E0.61444
G1 X223.719 Y237.620 E0.89878
G1 X222.308 Y237.835 E0.84897
G1 X220.912 Y238.135 E0.84896
G1 X219.775 Y238.449 E0.70142
G1 X205.150 Y238.449 E8.69838
G1 E-12.02641 F3600.000
G1 X223.382 Y233.568 F7800.000
G1 E12.02641 F3600.000
;TYPE:External perimeter
G1 F1345.566
G1 X224.185 Y233.589 E0.47790
G1 X224.708 Y233.466 E0.31928
G1 X225.194 Y233.238 E0.31932
G1 X225.623 Y232.916 E0.31928
G1 X225.978 Y232.513 E0.31935
G1 X226.242 Y232.045 E0.31928
G1 X226.406 Y231.534 E0.31932
G1 X226.461 Y231.000 E0.31929
G1 X226.406 Y230.466 E0.31929
G1 X226.242 Y229.955 E0.31932
G1 X225.978 Y229.487 E0.31928
G1 X225.623 Y229.084 E0.31935
G1 X225.194 Y228.762 E0.31928
G1 X224.450 Y228.459 E0.47792
G1 X223.917 Y228.390 E0.31928
G1 X223.382 Y228.432 E0.31931
G1 X222.866 Y228.582 E0.31931
G1 X222.393 Y228.834 E0.31932
G1 X221.803 Y229.380 E0.47789
G1 X221.515 Y229.833 E0.31931
G1 X221.325 Y230.335 E0.31930
G1 X221.243 Y230.866 E0.31932
G1 X221.270 Y231.402 E0.31931
G1 X221.407 Y231.921 E0.31928
G1 X221.647 Y232.401 E0.31931
G1 X221.980 Y232.822 E0.31932
G1 X222.393 Y233.166 E0.31929
G1 X222.866 Y233.418 E0.31932
G1 X223.236 Y233.534 E0.23026
G1 X223.477 Y233.820 F7800.000
G1 E-12.02641 F3600.000
G1 X186.750 Y233.541 F7800.000
G1 E12.02641 F3600.000
G1 F1345.566
G1 X187.494 Y233.238 E0.47793
G1 X187.923 Y232.916 E0.31927
G1 X188.278 Y232.513 E0.31935
G1 X188.542 Y232.045 E0.31928
G1 X188.706 Y231.534 E0.31932
G1 X188.761 Y231.000 E0.31929
G1 X188.706 Y230.466 E0.31929
G1 X188.542 Y229.955 E0.31932
G1 X188.278 Y229.487 E0.31928
G1 X187.923 Y229.084 E0.31935
G1 X187.494 Y228.762 E0.31927
G1 X187.008 Y228.534 E0.31933
G1 X186.485 Y228.411 E0.31928
G1 X185.682 Y228.432 E0.47790
G1 X185.166 Y228.582 E0.31932
G1 X184.693 Y228.834 E0.31930
G1 X184.103 Y229.380 E0.47790
G1 X183.815 Y229.833 E0.31930
G1 X183.625 Y230.335 E0.31931
G1 X183.543 Y230.866 E0.31932
G1 X183.570 Y231.402 E0.31930
G1 X183.707 Y231.921 E0.31931
G1 X183.947 Y232.401 E0.31930
G1 X184.280 Y232.822 E0.31932
G1 X184.693 Y233.166 E0.31931
G1 X185.166 Y233.418 E0.31930
G1 X185.682 Y233.568 E0.31932
G1 X186.217 Y233.610 E0.31931
G1 X186.602 Y233.568 E0.23023
G1 X186.937 Y233.733 F7800.000
G1 E-12.02641 F3600.000
G1 X205.000 Y239.440 F7800.000
G1 E12.02641 F3600.000
G1 F1500.000
G1 X190.081 Y239.440 E8.87294
G1 X188.850 Y239.098 E0.75996
G1 X187.513 Y238.810 E0.81321
G1 X186.161 Y238.604 E0.81323
G1 X184.345 Y238.460 E1.08380
G1 X183.060 Y237.154 E1.08958
G1 X183.060 Y224.975 E7.24332
G1 X184.397 Y223.414 E1.22252
G1 X185.439 Y223.117 E0.64444
G1 X186.230 Y222.789 E0.50954
G1 X187.346 Y222.153 E0.76398
G1 X188.032 Y221.640 E0.50955
G1 X188.663 Y221.060 E0.50958
G1 X189.232 Y220.420 E0.50957
G1 X189.735 Y219.726 E0.50958
G1 X190.280 Y218.751 E0.66459
G1 X190.568 Y218.560 E0.20546
G1 X219.432 Y218.560 E17.16614
G1 X219.720 Y218.751 E0.20546
G1 X220.265 Y219.726 E0.66459
G1 X220.768 Y220.420 E0.50958
G1 X221.337 Y221.060 E0.50957
G1 X221.968 Y221.640 E0.50958
G1 X222.654 Y222.153 E0.50955
G1 X223.770 Y222.789 E0.76398
G1 X224.561 Y223.117 E0.50954
G1 X225.603 Y223.414 E0.64444
G1 X226.940 Y224.975 E1.22252
G1 X226.940 Y237.154 E7.24332
G1 X225.655 Y238.460 E1.08958
G1 X223.839 Y238.604 E1.08380
G1 X222.487 Y238.810 E0.81323
G1 X221.150 Y239.098 E0.81321
G1 X219.919 Y239.440 E0.75996
G1 X205.150 Y239.440 E8.78372
G1 X204.500 Y238.574 F7800.000
G1 E-12.02641 F3600.000
G1 X217.705 Y220.840 F7800.000
M73 P3 R25
G1 E12.02641 F3600.000
;TYPE:Solid infill
;WIDTH:1.09457
G1 F1200.000
G1 X222.665 Y225.800 E4.07728
G1 X221.619 Y226.156 E0.64219
G1 X216.749 Y221.286 E4.00312
G1 X215.347 Y221.286 E0.81480
G1 X220.733 Y226.672 E4.42699
G1 X219.982 Y227.323 E0.57760
G1 X213.945 Y221.286 E4.96215
G1 X212.543 Y221.286 E0.81480
G1 X219.364 Y228.106 E5.60634
G1 X218.889 Y229.034 E0.60546
G1 X211.141 Y221.286 E6.36858
G1 X209.740 Y221.286 E0.81480
G1 X218.583 Y230.130 E7.26961
G1 X218.517 Y230.725 E0.34825
G1 X218.539 Y231.487 E0.44287
G1 X208.338 Y221.286 E8.38512
G1 X206.936 Y221.286 E0.81480
G1 X221.817 Y236.167 E12.23207
G1 X220.663 Y236.415 E0.68596
G1 X205.534 Y221.286 E12.43594
G1 X204.132 Y221.286 E0.81480
G1 X219.555 Y236.708 E12.67699
G1 X218.159 Y236.714 E0.81127
G1 X202.731 Y221.286 E12.68199
G1 X201.329 Y221.286 E0.81480
G1 X216.757 Y236.714 E12.68200
G1 X215.355 Y236.714 E0.81480
G1 X199.927 Y221.286 E12.68199
G1 X198.525 Y221.286 E0.81480
G1 X213.953 Y236.714 E12.68199
G1 X212.551 Y236.714 E0.81480
G1 X197.123 Y221.286 E12.68199
G1 X195.721 Y221.286 E0.81480
G1 X211.150 Y236.714 E12.68200
G1 X209.748 Y236.714 E0.81480
G1 X194.320 Y221.286 E12.68200
M73 P4 R25
G1 X192.918 Y221.286 E0.81480
G1 X208.346 Y236.714 E12.68199
G1 X206.944 Y236.714 E0.81480
G1 X191.784 Y221.554 E12.46179
G1 X191.174 Y222.345 E0.58096
G1 X205.542 Y236.714 E11.81103
G1 X204.141 Y236.714 E0.81480
G1 X190.501 Y223.074 E11.21195
G1 X189.767 Y223.743 E0.57677
G1 X202.739 Y236.714 E10.66260
G1 X201.337 Y236.714 E0.81480
G1 X188.968 Y224.345 E10.16732
G1 X188.104 Y224.883 E0.59143
G1 X199.935 Y236.714 E9.72477
G1 X198.533 Y236.714 E0.81480
G1 X191.252 Y229.433 E5.98486
G1 X191.462 Y230.451 E0.60391
G1 X191.487 Y231.069 E0.35975
G1 X197.131 Y236.714 E4.64000
G1 X195.730 Y236.714 E0.81480
G1 X191.321 Y232.306 E3.62375
G1 X190.946 Y233.333 E0.63545
G1 X194.328 Y236.714 E2.77956
G1 X192.926 Y236.714 E0.81480
G1 X190.416 Y234.204 E2.06344
G1 X189.751 Y234.941 E0.57692
G1 X191.524 Y236.714 E1.45740
G1 X190.468 Y236.714 E0.61401
G1 X189.992 Y236.584 E0.28637
G1 X188.951 Y235.543 E0.85580
G1 X188.008 Y236.002 E0.60962
G1 X188.752 Y236.745 E0.61115
G1 E-12.02641 F3600.000
G1 X188.572 Y226.753 F7800.000
G1 E12.02641 F3600.000
G1 F1200.000
G1 X186.835 Y225.016 E1.42814
; INIT stop printing object Rinforzo asse y scatolato 2020 anteriore Chiron.stl id:0 copy 0
; INIT printing object Rinforzo asse y scatolato 2020 posteriore Chiron.stl id:1 copy 0
G1 E-12.02641 F3600.000
; stop printing object Rinforzo asse y scatolato 2020 anteriore Chiron.stl id:0 copy 0
; printing object Rinforzo asse y scatolato 2020 posteriore Chiron.stl id:1 copy 0
G1 X205.000 Y209.458 F7800.000
G1 E12.02641 F3600.000
;TYPE:Perimeter
;WIDTH:1.12
G1 F1800.000
G1 X190.368 Y209.458 E8.70225
G1 X187.871 Y208.860 E1.52704
G1 X186.400 Y208.636 E0.88471
G1 X185.042 Y208.511 E0.81104
G1 X185.042 Y207.518 E0.59071
G1 X186.505 Y207.582 E0.87047
G1 X187.434 Y207.413 E0.56203
G1 X187.881 Y207.257 E0.28148
G1 X188.716 Y206.813 E0.56215
G1 X189.441 Y206.208 E0.56199
G1 X189.754 Y205.852 E0.28148
G1 X190.261 Y205.055 E0.56208
G1 X190.594 Y204.170 E0.56210
G1 X190.740 Y203.237 E0.56213
G1 X190.691 Y202.293 E0.56209
G1 X190.450 Y201.379 E0.56202
G1 X190.028 Y200.533 E0.56213
G1 X189.441 Y199.792 E0.56217
G1 X188.716 Y199.187 E0.56199
G1 X187.881 Y198.743 E0.56215
G1 X187.434 Y198.587 E0.28148
G1 X186.505 Y198.418 E0.56203
G1 X185.042 Y198.482 E0.87047
G1 X185.042 Y197.708 E0.46055
G1 X185.487 Y197.189 E0.40658
G1 X186.598 Y196.795 E0.70081
G1 X187.551 Y196.343 E0.62767
G1 X188.455 Y195.798 E0.62761
G1 X189.299 Y195.165 E0.62754
G1 X190.437 Y194.065 E0.94098
G1 X191.098 Y193.243 E0.62760
G1 X191.561 Y192.542 E0.49938
G1 X218.439 Y192.542 E15.98577
G1 X218.902 Y193.243 E0.49938
G1 X219.563 Y194.065 E0.62760
G1 X220.701 Y195.165 E0.94098
G1 X221.545 Y195.798 E0.62754
G1 X222.449 Y196.343 E0.62761
G1 X223.402 Y196.795 E0.62767
G1 X224.513 Y197.189 E0.70081
G1 X224.958 Y197.708 E0.40658
G1 X224.958 Y198.515 E0.48020
G1 X223.732 Y198.406 E0.73202
G1 X222.795 Y198.527 E0.56196
G1 X221.902 Y198.838 E0.56220
G1 X221.484 Y199.060 E0.28147
G1 X220.728 Y199.627 E0.56189
G1 X220.104 Y200.337 E0.56230
G1 X219.639 Y201.160 E0.56198
G1 X219.351 Y202.060 E0.56214
G1 X219.254 Y203.000 E0.56206
G1 X219.351 Y203.940 E0.56206
G1 X219.639 Y204.840 E0.56214
G1 X220.104 Y205.663 E0.56198
G1 X220.728 Y206.373 E0.56231
G1 X221.484 Y206.940 E0.56189
G1 X221.902 Y207.162 E0.28147
G1 X222.795 Y207.473 E0.56220
G1 X223.732 Y207.594 E0.56197
G1 X224.958 Y207.485 E0.73202
M73 P5 R25
G1 X224.958 Y208.511 E0.61037
G1 X223.600 Y208.636 E0.81104
G1 X222.129 Y208.860 E0.88471
G1 X219.632 Y209.458 E1.52704
G1 X205.150 Y209.458 E8.61304
G1 X205.000 Y210.449 F7800.000
G1 F1800.000
G1 X190.225 Y210.449 E8.78759
G1 X189.088 Y210.135 E0.70142
G1 X187.692 Y209.835 E0.84896
